X:19
T:The Village Idiot
C:Roy Watrous, 1968
C:(revised 1992)
S:The Watrous Book, 1992
M:6/8
L:1/8
Q:1/8=270
K:Bm
%%MIDI program 72
%%MIDI transpose 8
%%MIDI ratio 3 1
B2Tf B2Tf|Bcd edc|B2 b/b/ bag|fga gfe|Tf2F Tf2F|Bdf b2f|
efa gfe|Tf2F B3::Tf2F B>fb|Tf2F B>fb|eAf gAa|gAf eAd|
Tf2F B>db|Tf2F B>db|eAf gAa|Tf2F B3::b2 b/b/ bag|fga gfe|
f>ga g>fe|fed c2F|B2 b/b/ bag|fga gfe|Tf2F Tf2F|Bdf b3:|]

